X:1
T:Come Unto Me
T:Charles Price Jones, 1908
T:Come Unto Me
T:Public Domain
T:Public Domain
T:Public Domain
C:Charles Price Jones, 1908
Z:Public Domain
%%score ( 1 2 ) 3
L:1/8
M:4/4
K:C
V:1 treble 
V:2 treble 
V:3 bass 
V:1
 [CE]>[CE] [CE]>[DF] [EG]2 [CE]2 | [Ec]>[Ac] [GB]>[FA] [EG]4 | [DF]>[DF] [FA]>[EG] [DF]2 D2 | %3
w: 1.~Hear the bless- èd Sav- ior|call- ing the op- pressed,|“O ye hea- vy la- den,|
w: 2.~Are you dis- ap- point- ed,|wand- ering here and there,|Drag- ging chains of doubt and|
w: 3.~Stum- bling on the mount- ains|dark with sin and shame,|Stum- bling toward the pit of|
w: 4.~Have you by temp- ta- tion|of- ten con- quered been,|Has a sense of weak- ness|
 [FB]>[FA] [EG]>[DF] [CE]4 | [Ec]>[Ec] [Ec]>[Ec] [Ec]2 [EG]2 | [FA]>[Ac] [GB]>[FA] [EG]4 | %6
w: come to Me and rest.|Come, no long- er tar- ry,|I your load will bear,|
w: load- ed down with care?|Do un- ho- ly feel- ings|strug- gle in your breast?|
w: hell’s con- sum- ing flame.|By the powers of sin de-|lud- ed and op- pressed,|
w: brought dis- tress with- in?|Christ will sanc- ti- fy you,|if you’ll claim His best.|
 [Ge]>[Ge] [Ge]>[Gd] [Ac]2 [FA]2 | [EG]>[Ec] [DB]>[Fd] [Ec]4 ||"^Refrain" [EG]6 [CE]>[FA] | %9
w: Bring Me ev- ery bur- den,|bring Me ev- ery care.”||
w: Bring your case to Je- sus—|He will give you rest.||
w: Hear the ten- der Shep- herd,|“Come to Me and rest.”|Come un- to|
w: In the Ho- ly Spir- it,|He will give you rest.||
 [EG]4- [EG]4 | [FB]4- [FB]>G [FA]>[FB] | (E>E F>F E4) | [Ac]4- [Ac]>[Ac] [GB]>[FA] | [EG]4 [CE]4 | %14
w: |||||
w: |||||
w: Me, *|I * will give you|Take * * * *|yoke * up- on you,|hear Me|
w: |||||
 [^Fd]4- [Fd]>[Ac] [GB]>[FA] | (D>D E>E [FG]4) | [EG]4- [EG]>[EG] [FA]>[EG] | [CE]4 [EG]4 | %18
w: ||||
w: ||||
w: and * be blessed. I|am * * * *|and * low- ly, come|and trust|
w: ||||
 [FA]4- [FA]>[Ac] [GB]>[FA] | [Ge]8 | [EG]4- [EG]>[Ge] [Gd]>[Gc] | [Ac]4 [FA]4 | %22
w: ||||
w: ||||
w: My * might. Come, My|yoke|is * ea- sy, and|My bur-|
w: ||||
 [EG]4- [EG]>[Ec] [DB]>[Fd] | (E>E F>F E6) |] %24
w: ||
w: ||
w: den’s * light. * *||
w: ||
V:2
 x8 | x8 | x8 | x8 | x8 | x8 | x8 | x8 || x8 | x8 | x11/2 F/ x2 | c6 x2 | x8 | x8 | x8 | G4- x4 | %16
w: ||||||||||||||||
w: ||||||||||||||||
w: ||||||||||rest;|My||||meek|
 x8 | x8 | x8 | x8 | x8 | x8 | x8 | c4- c6 |] %24
w: ||||||||
w: ||||||||
w: ||||||||
V:3
 [C,G,]>[C,G,] [C,G,]>[C,G,] [C,C]2 [C,G,]2 | [C,G,]>[C,C] [C,C]>[C,C] [C,C]4 | %2
 [G,B,]>[G,B,] [G,B,]>[G,B,] [G,B,]2 [G,B,]2 | [G,,B,]>[G,,B,] [A,,B,]>[B,,G,] [C,G,]4 | %4
 [C,G,]>[C,G,] [C,G,]>[C,G,] [C,G,]2 [C,C]2 | [F,C]>[F,C] [F,C]>[F,C] [C,C]4 | %6
 [C,C]>[C,C] [C,C]>[E,C] [F,C]2 [F,C]2 | [G,C]>G, [G,,G,]>[G,,G,] [C,G,]4 || %8
 ([C,C]2 [C,C]>[C,C] [C,C]2) z2 | ([C,C]2 [C,C]>[C,C] [C,C]4) | %10
 ([G,D]>[G,D] [G,D]>[G,D] [G,D]) z z2 | ([C,G,]>[C,G,] [C,A,]>[C,A,] [C,G,]4) | %12
 ([F,C]>[F,C] [F,C]>[F,C] [F,C]>)[F,C] z2 | ([C,C]>[C,C] [C,C]>[C,C]) ([C,G,]2 [C,G,]2) | %14
 [D,A,]>[D,A,] [D,A,]>[D,A,] [D,A,]2 z2 | ([G,B,]>[G,B,] [G,C]>[G,C] [G,D]4) | %16
 ([C,C]>[C,C] [C,C]>[C,C] [C,C]2) [C,C]2 | ([C,G,]>[C,G,] [C,G,]>[C,G,]) [C,C]2 [C,C]2 | %18
 ([F,C]>[F,C] [F,C]>[F,C] [F,C]2) z2 | ([C,C]>[C,C] [C,C]>[C,C] [C,C]4) | %20
 ([C,C]2 [C,C]2 [C,C]2) z2 | ([F,C]>[F,C] [F,C]>[F,C]) ([F,C]2 [F,C]2) | %22
 ([G,C]2 [G,C]2 [G,C]2) z2 | ([C,G,]>[C,G,] [C,A,]>[C,A,] [C,G,]6) |] %24

